!!!OTL: Aufmunterung zur Freude.
!!!OTL-incipit:WER WOLLTE SICH MIT GRILLEN PLAGEN
!!!COM: G. W. Fink
!!!ARE: Europa, Mitteleuropa, Deutschland
!!!SCT: F0353
!!!TXL: @@DE
!!!YEM: Copyright 1995, estate of Helmut Schaffrath.
**kern	**text
*ICvox	*
*M3/8	*
*k[f#c#]	*
*D:	*
!LO:TX:a:t=Mäßig und heiter.	!
!LO:TX:a:t=Dreiſtimmig auch ohne Begleitung.	!
{8a	1._Wer
=1	=1
(8.ddL	woll-
16cc#J)	.
8b	-te
=2	=2
4a	ſich
8f#	mit
=3	=3
4g	Grillen
8a	.
=4	=4
8f#	pla-
8d}	-gen,
{16.gL	ſo
32f#J	.
=5	=5
4f#	lang
16.dd/L	uns
32cc#J	.
=6	=6
4cc#/	Lenʒ
16ee/L	und
16ddJ	.
=7	=7
(8cc#/L	Ju-
8aJ)	.
16.g#L	-gend
32aJ	.
=8	=8
4a}	blüh'n!
{8a	Wer
=9	=9
(8.ddL	wollt'
16cc#J)	.
8b	in
=10	=10
4a	ſei-
8f#	-nen
=11	=11
4g	Blüthen-
8a	.
=12	=12
8f#	-ta-
8d}	-gen
{16.gL	die
32f#J	.
=13	=13
4f#	Stirn
16.dd/L	in
32cc#J	.
=14	=14
4cc#/	dü-
16ee/L	-ſtre
16ddJ	.
=15	=15
(8cc#/L	Fal-
8aJ)	.
16.g#L	-ten
32aJ	.
=16	=16
4a}	ʒiehn?
{8a	Die
=17	=17
8.cc#/L	Freu-
16bJ	.
8cc#/	-de
=18	=18
4dd/	winkt
8a	auf
=19	=19
8aL	al-
8gJ	.
8f#	-len
=20	=20
8f#	We-
8e}	-gen,
{8a	die
=21	=21
8.cc#/L	durch
16bJ	.
8cc#	das
=22	=22
4dd/	Pil-
8f#	-ger-
=23	=23
8g#L	-le-
8f#J	.
8g#	-ben
=24	=24
4a}	gehn;
!LO:TX:a:t=Das zweite Mal Alle.	!
{8a	ſie
=25	=25
8ee/L	bringt
16dd	.
16cc#J	.
16b/L	uns
16cc#J	.
=26	=26
4dd	ſelbſt
8dd	den
=27	=27
16dd#/L	Kranʒ
16ee	.
16dd	.
16cc#J	.
16b/L	ent-
16aJ	.
=28	=28
8a	-ge-
8dd/}	-gen
{8cc/	wenn
=29	=29
4b/	wir
8cc#/	am
=30	=30
4dd/	Scheide-
8ee/	.
=31	=31
8.cc#/L	-we-
16bJ	.
8cc#/	-ge
=32	=32
4dd/}	ſtehn.
{8a	ſie
=33	=33
8ee/L	bringt
16dd	.
16cc#J	.
16b/L	uns
16cc#J	.
=34	=34
4dd	ſelbſt
8dd	den
=35	=35
16dd#/L	Kranʒ
16ee	.
16dd	.
16cc#J	.
16b/L	ent-
16aJ	.
=36	=36
8a	-ge-
8dd/}	-gen
{8cc/	wenn
=37	=37
4b/	wir
8cc#/	am
=38	=38
4dd/	Scheide-
8ee/	.
=39	=39
8.cc#/L	-we-
16bJ	.
8cc#/	-ge
=40	=40
4dd/}	ſtehn.
==	==
!!!AGN: Jugend - Lied, Belehrung
!!!ONB: ESAC (Essen Associative Code) Database: FINK
!!!AMT: simple triple
!!!AIN: vox
!!!EED: Helmut Schaffrath
!!!EEV: 1.0
!!!GTL: Jugendlieder
!!Text: Hoelty
!!@@COMMENT:"Man vergleiche damit J. Fr. Reichardt's Kompoſiʒion dieſes Liedes in ſeiner Anthologie: Lieder geſelliger Freude. 
!!Leipʒ. 1796. Der alten Weiſe jener Ʒeit nachgebildet."
!!@@END:
!!!source: Musikalischer Hausschatz der Deutschen. Eine Sammlung von über 1000 Liedern und Gesängen mit Singstimmen und Klavierbegleitung. Leipzig, Litterarisches Verlags-Haus.
!!!page: 209
!!!URL-scan: https://www.digitale-sammlungen.de/en/view/bsb11144622?page=206,207
!!!ENC: Anna Maria Matuszewska
!!!EEV: 2024/07/30
*-	*-
